src/pos-icons/arrow-top-right-bottom-left-bold.svg

<svg height="24" viewBox="0 0 24 24" width="24" xmlns="http://www.w3.org/2000/svg"><path d="m18.17 8.66 2.83 2.84v-8.5h-8.5l2.84 2.83-9.51 9.51-2.83-2.84v8.5h8.5l-2.84-2.83z"/></svg>

<?xml version="1.0" encoding="UTF-8"?><!DOCTYPE svg PUBLIC "-//W3C//DTD SVG 1.1//EN" "http://www.w3.org/Graphics/SVG/1.1/DTD/svg11.dtd"><svg xmlns="http://www.w3.org/2000/svg" xmlns:xlink="http://www.w3.org/1999/xlink" version="1.1" id="mdi-arrow-top-right-bottom-left-bold" width="24" height="24" viewBox="0 0 24 24"><path d="M18.17,8.66L21,11.5V3H12.5L15.34,5.83L5.83,15.34L3,12.5V21H11.5L8.66,18.17L18.17,8.66Z" /></svg>
